X: 23
T: Bow Fair
T: Longways for as many as will.
%R:
B: Daniel Wright "Wright's Compleat Collection of Celebrated Country Dances" 1740 p.12
S: http://library.efdss.org/cgi-bin/dancebooks.cgi
Z: 2014 John Chambers <jc:trillian.mit.edu>
M: 3/2
L: 1/8
K: Bb
% - - - - - - - - - - - - - - - - - - - - - - - - -
[|\
B,4 (CDEF GABc) | d2 B4 FE D2B,2 | C4 (DEFG ABcd) | e2 c4 GB A2F2 | B,4 CDEF
GABc | d2 B4 F2 D2B,2 | Bgfe dcBd cBAG | FEDC B,CD2 B,4 |] f3e defe dcBA |
c2F2 _AcBA GDCD | g3f efg2 d2c2 | c2F2 BcBA A2F2 | f3e def2 d2B2 | B2F2 _AcBA GEDC |
DFB2 CEA2 B,DG2 | EDCB, D2C2 D4 |] Bdfb f2d2 f2_a2 | g2 e4 c2 A2F2 | BABc dcBA G2E2 |
D2C2 D2F2 A,4 | d2b2 f2d2 a2f2 | g2 e4 c2 A2F2 | GBAc Bdfb fdBG | AFGB, ECDA, B,4 |]
% - - - - - - - - - - - - - - - - - - - - - - - - -
%%begintext align
%% The 1st man turn the 2d Wo. then Partners then 1st Cu. lead thro'
%% The 2d Cu. & cast up to the top & turn .| the 1st Wo. turn the
%% 2d Man then Partners the 1st Cu. lead thro' the 2d C. & cast up to the
%% Top & turn :| 1st Cu. Hey the Man with the 3d Cu. & the Wo. with the
%% 2d Cu. then the Man with the 2d Cu. & the Wo. with the 3d Cu. & turn in
%% the 2d Cu. Place .| Turn Corners & Partners :| Cross corners
%% And turn Partners .| then turn Partners in the 2d
%% Cu. Place lead thro' the Top Cu. cast of & lead thro'
%% the 3d Cu. cast up and turn.
%%endtext
% The last 3 lines of the above dance description were under the next dance, Happy Dick.
% - - - - - - - - - - - - - - - - - - - - - - - - -
%%sep 2 4 300
